X: 34068
T: Reel De Mme Renault
R: reel
M: 4/4
K: Gmajor
D2|:G2 BG dGBG|DGBd ~g2 fg|eAcA eAcA|ABcd efge|
G2 BG dGBG|DGBd ~g2 fg|afge fdec|1 ABcd efge:|2 ABcd edBd||
|:~g2 fg dgBg|dgba gfed|eaga eaga|ecaf gfed|
~g2 fg dgBg|dgba gf ((3efg)|afge fdec|1 ABcd edBd:|2 ABcd efge||

